X:6857
T:The Greyhound
O:england
B:Joyce, P. W.; "Old Irish Folk Music and Songs"
R:hornpipe
H:From Mick Dinneen, Coolfree Co. Limerick:1852
L:1/8
M:C
K:G
D/E/F|G2 GA BGdB|cBAB cedB|ABcd efge|fage dcBA|
G2 GA BGdB|cBAB cedB|ABcd efgf|g2 G2 G2:|
|:B| A2 af dgBe|defg afed|ebag fadf|gedB A2 BA|
G2 dB Agfe|defg afdB|ABcd efgf|g2 G2 G2:|
